images/picnic_shelter.svg

<?xml version="1.0" encoding="UTF-8" standalone="no"?>
<svg xmlns:dc="http://purl.org/dc/elements/1.1/" xmlns:cc="http://creativecommons.org/ns#" xmlns:rdf="http://www.w3.org/1999/02/22-rdf-syntax-ns#" xmlns:svg="http://www.w3.org/2000/svg" xmlns="http://www.w3.org/2000/svg" xmlns:sodipodi="http://sodipodi.sourceforge.net/DTD/sodipodi-0.dtd" xmlns:inkscape="http://www.inkscape.org/namespaces/inkscape" width="32" height="32" id="svg2" sodipodi:version="0.32" inkscape:version="1.0.1 (3bc2e813f5, 2020-09-07)" version="1.0" sodipodi:docname="picnic_shelter.svg" inkscape:output_extension="org.inkscape.output.svg.inkscape" inkscape:export-filename="/home/rudolf/Downloads/mapicons2/Shelter_picnic_brown_p16.png" inkscape:export-xdpi="44.985714" inkscape:export-ydpi="44.985714">
  <title id="title3212">Map icon for shelter</title>
  <metadata id="metadata10">
    <rdf:RDF>
      <cc:Work rdf:about="">
        <dc:format>image/svg+xml</dc:format>
        <dc:type rdf:resource="http://purl.org/dc/dcmitype/StillImage" />
        <cc:license rdf:resource="http://creativecommons.org/publicdomain/zero/1.0/" />
        <dc:title>Map icon for shelter</dc:title>
        <dc:creator>
          <cc:Agent>
            <dc:title>Rudolf</dc:title>
          </cc:Agent>
        </dc:creator>
        <dc:date>2012-04-05</dc:date>
      </cc:Work>
      <cc:License rdf:about="http://creativecommons.org/publicdomain/zero/1.0/">
        <cc:permits rdf:resource="http://creativecommons.org/ns#Reproduction" />
        <cc:permits rdf:resource="http://creativecommons.org/ns#Distribution" />
        <cc:permits rdf:resource="http://creativecommons.org/ns#DerivativeWorks" />
      </cc:License>
    </rdf:RDF>
  </metadata>
  <sodipodi:namedview inkscape:window-height="1056" inkscape:window-width="1847" inkscape:pageshadow="2" inkscape:pageopacity="0.0" guidetolerance="10.0" gridtolerance="10.0" objecttolerance="10.0" borderopacity="1.0" bordercolor="#666666" pagecolor="#ffffff" id="base" showgrid="true" inkscape:snap-global="false" inkscape:zoom="16" inkscape:cx="-7.2914423" inkscape:cy="7.3547601" inkscape:window-x="0" inkscape:window-y="0" inkscape:window-maximized="1" inkscape:current-layer="svg2" showguides="true" inkscape:guide-bbox="true" inkscape:snap-bbox="false" inkscape:snap-grids="true" inkscape:snap-page="false" inkscape:snap-nodes="true" inkscape:object-nodes="true" inkscape:snap-to-guides="false" inkscape:snap-center="true" inkscape:snap-object-midpoints="true" inkscape:snap-midpoints="true" inkscape:snap-smooth-nodes="true" inkscape:object-paths="true" inkscape:snap-intersection-paths="true" fit-margin-top="0" fit-margin-left="0" fit-margin-right="0" fit-margin-bottom="0" inkscape:document-rotation="0" inkscape:pagecheckerboard="true">
    <inkscape:grid type="xygrid" id="grid2383" visible="true" enabled="true" empspacing="2" snapvisiblegridlinesonly="true" units="px" spacingx="1" spacingy="1" />
  </sodipodi:namedview>
  <defs id="defs4">
    <inkscape:perspective sodipodi:type="inkscape:persp3d" inkscape:vp_x="0 : 526.18109 : 1" inkscape:vp_y="0 : 1000 : 0" inkscape:vp_z="744.09448 : 526.18109 : 1" inkscape:persp3d-origin="372.04724 : 350.78739 : 1" id="perspective10" />
    <inkscape:perspective id="perspective2461" inkscape:persp3d-origin="10 : 6.6666667 : 1" inkscape:vp_z="20 : 10 : 1" inkscape:vp_y="0 : 1000 : 0" inkscape:vp_x="0 : 10 : 1" sodipodi:type="inkscape:persp3d" />
    <inkscape:perspective id="perspective2466" inkscape:persp3d-origin="400 : 200 : 1" inkscape:vp_z="800 : 300 : 1" inkscape:vp_y="0 : 1000 : 0" inkscape:vp_x="0 : 300 : 1" sodipodi:type="inkscape:persp3d" />
  </defs>
  <path id="path896" style="color:#000000;font-style:normal;font-variant:normal;font-weight:normal;font-stretch:normal;font-size:medium;line-height:normal;font-family:sans-serif;font-variant-ligatures:normal;font-variant-position:normal;font-variant-caps:normal;font-variant-numeric:normal;font-variant-alternates:normal;font-variant-east-asian:normal;font-feature-settings:normal;font-variation-settings:normal;text-indent:0;text-align:start;text-decoration:none;text-decoration-line:none;text-decoration-style:solid;text-decoration-color:#000000;letter-spacing:normal;word-spacing:normal;text-transform:none;writing-mode:lr-tb;direction:ltr;text-orientation:mixed;dominant-baseline:auto;baseline-shift:baseline;text-anchor:start;white-space:normal;shape-padding:0;shape-margin:0;inline-size:0;clip-rule:nonzero;display:inline;overflow:visible;visibility:visible;opacity:1;isolation:auto;mix-blend-mode:normal;color-interpolation:sRGB;color-interpolation-filters:linearRGB;solid-color:#000000;solid-opacity:1;vector-effect:none;fill:#ffffff;fill-opacity:0.5;fill-rule:nonzero;stroke:#ffffff;stroke-width:3;stroke-linecap:round;stroke-linejoin:round;stroke-miterlimit:4;stroke-dasharray:none;stroke-dashoffset:0;stroke-opacity:0.5;color-rendering:auto;image-rendering:auto;shape-rendering:auto;text-rendering:auto;enable-background:accumulate;stop-color:#000000;stop-opacity:1" d="M 7.421875,1.0322634 C 7.2651808,1.0358605 7.1135498,1.0884532 6.9882812,1.182654 L 1.0527344,5.6494509 C 0.72137755,5.8985072 0.65489472,6.3691355 0.90429688,6.7002321 C 1.1532286,7.0303466 1.6223642,7.0967419 1.953125,6.8486696 L 7.4355469,2.7236696 L 12.789062,6.8447634 C 13.117604,7.0963227 13.58781,7.0342696 13.839844,6.7060915 C 14.091839,6.3780603 14.03067,5.9079366 13.703125,5.6553103 L 7.8964844,1.1885134 C 7.7607885,1.083718 7.5932863,1.0285733 7.421875,1.0322634 Z M 8.3808594,7.9960938 C 8.3613067,7.9955982 8.3417419,7.9962504 8.3222656,7.9980469 H 4.4394531 H 3.9394531 V 8.9980469 H 4.4394531 H 5.9375 L 5.2226562,10.998047 H 3.453125 H 2.953125 V 11.998047 H 3.453125 H 4.8652344 L 4.03125,14.328125 C 3.9373309,14.588656 4.0730707,14.875899 4.3339844,14.96875 C 4.5939397,15.061382 4.8797898,14.925888 4.9726562,14.666016 L 5.9277344,11.998047 H 9.0761719 L 10.025391,14.664062 C 10.117454,14.924711 10.403549,15.061197 10.664062,14.96875 C 10.924711,14.876687 11.061197,14.590591 10.96875,14.330078 L 10.138672,11.998047 H 11.552734 H 12.052734 V 10.998047 H 11.552734 H 9.78125 L 9.0703125,8.9980469 H 10.564453 H 11.064453 V 7.9980469 H 10.564453 H 8.3964844 C 8.3912866,7.9973139 8.3860777,7.9966628 8.3808594,7.9960938 Z M 7,8.9980469 H 8.0097656 L 8.7207031,10.998047 H 6.2851562 Z" sodipodi:nodetypes="cccccccccccccccccccccccccccccccccccccccccccccccccc" />
  <path id="path851" style="color:#000000;font-style:normal;font-variant:normal;font-weight:normal;font-stretch:normal;font-size:medium;line-height:normal;font-family:sans-serif;font-variant-ligatures:normal;font-variant-position:normal;font-variant-caps:normal;font-variant-numeric:normal;font-variant-alternates:normal;font-variant-east-asian:normal;font-feature-settings:normal;font-variation-settings:normal;text-indent:0;text-align:start;text-decoration:none;text-decoration-line:none;text-decoration-style:solid;text-decoration-color:#000000;letter-spacing:normal;word-spacing:normal;text-transform:none;writing-mode:lr-tb;direction:ltr;text-orientation:mixed;dominant-baseline:auto;baseline-shift:baseline;text-anchor:start;white-space:normal;shape-padding:0;shape-margin:0;inline-size:0;clip-rule:nonzero;display:inline;overflow:visible;visibility:visible;opacity:1;isolation:auto;mix-blend-mode:normal;color-interpolation:sRGB;color-interpolation-filters:linearRGB;solid-color:#000000;solid-opacity:1;vector-effect:none;fill:#000000;fill-opacity:1;fill-rule:nonzero;stroke:none;stroke-width:1.5;stroke-linecap:round;stroke-linejoin:round;stroke-miterlimit:4;stroke-dasharray:none;stroke-dashoffset:0;stroke-opacity:1;color-rendering:auto;image-rendering:auto;shape-rendering:auto;text-rendering:auto;enable-background:accumulate;stop-color:#000000;stop-opacity:1" d="M 7.421875,1.0322634 C 7.2651808,1.0358605 7.1135498,1.0884532 6.9882812,1.182654 L 1.0527344,5.6494509 C 0.72137755,5.8985072 0.65489472,6.3691355 0.90429688,6.7002321 C 1.1532286,7.0303466 1.6223642,7.0967419 1.953125,6.8486696 L 7.4355469,2.7236696 L 12.789062,6.8447634 C 13.117604,7.0963227 13.58781,7.0342696 13.839844,6.7060915 C 14.091839,6.3780603 14.03067,5.9079366 13.703125,5.6553103 L 7.8964844,1.1885134 C 7.7607885,1.083718 7.5932863,1.0285733 7.421875,1.0322634 Z M 8.3808594,7.9960938 C 8.3613067,7.9955982 8.3417419,7.9962504 8.3222656,7.9980469 H 4.4394531 H 3.9394531 V 8.9980469 H 4.4394531 H 5.9375 L 5.2226562,10.998047 H 3.453125 H 2.953125 V 11.998047 H 3.453125 H 4.8652344 L 4.03125,14.328125 C 3.9373309,14.588656 4.0730707,14.875899 4.3339844,14.96875 C 4.5939397,15.061382 4.8797898,14.925888 4.9726562,14.666016 L 5.9277344,11.998047 H 9.0761719 L 10.025391,14.664062 C 10.117454,14.924711 10.403549,15.061197 10.664062,14.96875 C 10.924711,14.876687 11.061197,14.590591 10.96875,14.330078 L 10.138672,11.998047 H 11.552734 H 12.052734 V 10.998047 H 11.552734 H 9.78125 L 9.0703125,8.9980469 H 10.564453 H 11.064453 V 7.9980469 H 10.564453 H 8.3964844 C 8.3912866,7.9973139 8.3860777,7.9966628 8.3808594,7.9960938 Z M 7,8.9980469 H 8.0097656 L 8.7207031,10.998047 H 6.2851562 Z" sodipodi:nodetypes="cccccccccccccccccccccccccccccccccccccccccccccccccc" />
</svg>

<svg xmlns="http://www.w3.org/2000/svg" width="32" height="32" version="1.0">
    <path d="M7.422 1.032a.75.75 0 00-.434.15L1.053 5.65a.75.75 0 00.9 1.2l5.483-4.125 5.353 4.12a.75.75 0 00.914-1.189L7.896 1.19a.75.75 0 00-.474-.157zm.959 6.964a.5.5 0 00-.059.002H3.94v1h1.998l-.714 2h-2.27v1h1.912l-.834 2.33a.5.5 0 10.942.338l.955-2.668h3.148l.95 2.666a.5.5 0 10.943-.334l-.83-2.332h1.914v-1H9.78l-.71-2h1.993v-1H8.396a.5.5 0 00-.015-.002zM7 8.998h1.01l.71 2H6.286z" color="#000" fill="#fff" fill-opacity=".5" stroke="#fff" stroke-width="3" stroke-linecap="round" stroke-linejoin="round" stroke-opacity=".5"/>
    <path d="M7.422 1.032a.75.75 0 00-.434.15L1.053 5.65a.75.75 0 00.9 1.2l5.483-4.125 5.353 4.12a.75.75 0 00.914-1.189L7.896 1.19a.75.75 0 00-.474-.157zm.959 6.964a.5.5 0 00-.059.002H3.94v1h1.998l-.714 2h-2.27v1h1.912l-.834 2.33a.5.5 0 10.942.338l.955-2.668h3.148l.95 2.666a.5.5 0 10.943-.334l-.83-2.332h1.914v-1H9.78l-.71-2h1.993v-1H8.396a.5.5 0 00-.015-.002zM7 8.998h1.01l.71 2H6.286z" color="#000"/>
</svg>
